deployments/warp_routes/TGT/logo.svg

<svg xmlns="http://www.w3.org/2000/svg" width="540" height="540" fill="none" viewBox="0 0 540 540"><path fill="#FF0001" d="M377.972 107.647C430.393 142.476 465 202.309 465 270.289 465 377.815 378.434 465 271.63 465c-18.054 0-35.515-2.499-52.087-7.16v-80.752a154.4 154.4 0 0 0 56.733 14.825V177.157l73.289 41.467v160.265c54.803-24.397 93.048-79.613 93.048-143.839h.019c0-52.412-25.497-98.838-64.66-127.403"/><path fill="#FF0001" d="M268.37 75c18.054 0 35.516 2.499 52.088 7.16v80.751a154.5 154.5 0 0 0-56.754-14.827v214.76l-73.289-41.467V161.118c-54.792 24.401-93.028 79.613-93.028 143.832h-.019c0 52.411 25.498 98.837 64.66 127.402C109.608 397.523 75 337.691 75 269.711 75 162.185 161.584 75.001 268.37 75"/></svg>

<svg width="540" height="540" viewBox="0 0 540 540" fill="none" xmlns="http://www.w3.org/2000/svg">
<path d="M377.972 107.647C430.393 142.476 465 202.309 465 270.289C465 377.815 378.434 465 271.63 465C253.576 465 236.115 462.501 219.543 457.84V377.088C236.928 385.409 256.08 390.597 276.276 391.913V177.157L349.565 218.624V378.889C404.368 354.492 442.613 299.276 442.613 235.05H442.632C442.632 182.638 417.135 136.212 377.972 107.647Z" fill="#FF0001"/>
<path d="M268.37 75C286.424 75 303.886 77.4989 320.458 82.1602V162.911C303.067 154.587 283.908 149.398 263.704 148.084V362.844L190.415 321.377V161.118C135.623 185.519 97.3867 240.731 97.3867 304.95H97.3682C97.3682 357.361 122.866 403.787 162.028 432.352C109.608 397.523 75.0001 337.691 75 269.711C75 162.185 161.584 75.0001 268.37 75Z" fill="#FF0001"/>
</svg>
